;FLAVOR:Marlin
;TIME:1786
;Filament used: 0.830565m
;Layer height: 0.13125
;MINX:43.9
;MINY:34.925
;MINZ:0.263
;MAXX:76.1
;MAXY:85.075
;MAXZ:2.883
;Generated with Cura_SteamEngine 4.4.1
M140 S65
M105
M190 S65
M104 S205
M105
M109 S205
M82 ;absolute extrusion mode
G21;(metric values)
G90;(absolute positioning)
M82;(set extruder to absolute mode)
M107;(start with the fan off)
G28;(Home the printer)
G92 E0;(Reset the extruder to 0)
G0 Z5 E5 F500;(Move up and prime the nozzle)
G0 X-1 Z0;(Move outside the printable area)
G1 Y60 E8 F500;(Draw a priming/wiping line to the rear)
G1 X-1;(Move a little closer to the print area)
G1 Y10 E16 F500;(draw more priming/wiping)
G1 E15 F250;(Small retract)
G92 E0;(Zero the extruder)
G92 E0
G92 E0
G1 F2400 E-2.5
;LAYER_COUNT:21
;LAYER:0
M107
G0 F4320 X44.868 Y37.019 Z0.263
;TYPE:SKIRT
G1 F2400 E0
G1 F1800 X45.274 Y36.528 E0.02438
G1 X45.738 Y36.092 E0.04875
G1 X46.253 Y35.717 E0.07313
G1 X46.81 Y35.41 E0.09747
G1 X47.402 Y35.175 E0.12184
G1 X48.019 Y35.016 E0.14623
G1 X48.651 Y34.935 E0.17061
G1 X48.975 Y34.925 E0.18302
G1 X71.025 Y34.925 E1.02687
G1 X71.661 Y34.965 E1.05126
G1 X72.286 Y35.084 E1.07561
G1 X72.892 Y35.281 E1.09999
G1 X73.468 Y35.552 E1.12435
G1 X74.006 Y35.893 E1.14873
G1 X74.497 Y36.299 E1.17311
G1 X74.933 Y36.763 E1.19748
G1 X75.308 Y37.278 E1.22186
G1 X75.615 Y37.835 E1.2462
G1 X75.85 Y38.427 E1.27058
G1 X76.009 Y39.044 E1.29496
G1 X76.09 Y39.676 E1.31934
G1 X76.1 Y40 E1.33175
G1 X76.1 Y80 E2.86255
G1 X76.06 Y80.636 E2.88694
G1 X75.941 Y81.261 E2.91128
G1 X75.744 Y81.867 E2.93567
G1 X75.473 Y82.443 E2.96003
G1 X75.132 Y82.981 E2.98441
G1 X74.726 Y83.472 E3.00879
G1 X74.262 Y83.908 E3.03316
G1 X73.747 Y84.283 E3.05754
G1 X73.19 Y84.59 E3.08188
G1 X72.598 Y84.825 E3.10625
G1 X71.981 Y84.984 E3.13064
G1 X71.349 Y85.065 E3.15502
G1 X71.025 Y85.075 E3.16743
G1 X48.975 Y85.075 E4.01128
G1 X48.339 Y85.035 E4.03567
G1 X47.714 Y84.916 E4.06001
G1 X47.108 Y84.719 E4.0844
G1 X46.532 Y84.448 E4.10876
G1 X45.994 Y84.107 E4.13314
G1 X45.503 Y83.701 E4.15752
G1 X45.067 Y83.237 E4.18189
G1 X44.692 Y82.722 E4.20627
G1 X44.385 Y82.165 E4.23061
G1 X44.15 Y81.573 E4.25498
G1 X43.991 Y80.956 E4.27937
G1 X43.91 Y80.324 E4.30375
G1 X43.9 Y80 E4.31616
G1 X43.9 Y40 E5.84696
G1 X43.94 Y39.364 E5.87134
G1 X44.059 Y38.739 E5.89569
G1 X44.256 Y38.133 E5.92008
G1 X44.503 Y37.609 E5.94225
G0 F1620 X44.527 Y37.557
G0 X44.868 Y37.019
G0 F4320 X45.216 Y37.138
G1 F1800 X45.619 Y36.674 E5.96577
G1 X46.079 Y36.267 E5.98927
G1 X46.588 Y35.922 E6.01281
G1 X47.137 Y35.647 E6.0363
G1 X47.718 Y35.445 E6.05984
G1 X48.319 Y35.321 E6.08333
G1 X48.975 Y35.275 E6.1085
G1 X71.025 Y35.275 E6.95235
G1 X71.638 Y35.315 E6.97586
G1 X72.241 Y35.434 E6.99938
G1 X72.823 Y35.631 E7.02289
G1 X73.375 Y35.901 E7.04641
G1 X73.887 Y36.241 E7.06993
G1 X74.351 Y36.644 E7.09345
G1 X74.758 Y37.104 E7.11696
G1 X75.103 Y37.613 E7.14049
G1 X75.378 Y38.162 E7.16399
G1 X75.58 Y38.743 E7.18753
G1 X75.704 Y39.344 E7.21101
G1 X75.75 Y40 E7.23618
G1 X75.75 Y80 E8.76698
G1 X75.71 Y80.613 E8.79049
G1 X75.591 Y81.216 E8.81401
G1 X75.394 Y81.798 E8.83752
G1 X75.124 Y82.35 E8.86104
G1 X74.784 Y82.862 E8.88456
G1 X74.381 Y83.326 E8.90808
G1 X73.921 Y83.733 E8.93159
G1 X73.412 Y84.078 E8.95512
G1 X72.863 Y84.353 E8.97862
G1 X72.282 Y84.555 E9.00216
G1 X71.681 Y84.679 E9.02564
G1 X71.025 Y84.725 E9.05081
G1 X48.975 Y84.725 E9.89466
G1 X48.362 Y84.685 E9.91817
G1 X47.759 Y84.566 E9.94169
G1 X47.177 Y84.369 E9.96521
G1 X46.625 Y84.099 E9.98872
G1 X46.113 Y83.759 E10.01224
G1 X45.649 Y83.356 E10.03576
G1 X45.242 Y82.896 E10.05927
G1 X44.897 Y82.387 E10.0828
G1 X44.622 Y81.838 E10.1063
G1 X44.42 Y81.257 E10.12984
G1 X44.296 Y80.656 E10.15333
G1 X44.25 Y80 E10.17849
G1 X44.25 Y40 E11.70929
G1 X44.29 Y39.387 E11.7328
G1 X44.409 Y38.784 E11.75632
G1 X44.606 Y38.202 E11.77984
G1 X44.841 Y37.721 E11.80032
G0 F1620 X44.876 Y37.65
G0 X45.216 Y37.138
G0 F4320 X45.563 Y37.262
G1 F1800 X45.963 Y36.827 E11.82294
G1 X46.419 Y36.45 E11.84558
G1 X46.921 Y36.137 E11.86822
G1 X47.46 Y35.896 E11.89082
G1 X48.028 Y35.729 E11.91347
G1 X48.612 Y35.64 E11.93608
G1 X48.975 Y35.625 E11.94999
G1 X71.025 Y35.625 E12.79384
G1 X71.615 Y35.665 E12.81647
G1 X72.194 Y35.784 E12.83909
G1 X72.752 Y35.98 E12.86172
G1 X73.278 Y36.25 E12.88435
G1 X73.763 Y36.588 E12.90698
G1 X74.198 Y36.988 E12.92959
G1 X74.575 Y37.444 E12.95223
G1 X74.888 Y37.946 E12.97487
G1 X75.129 Y38.485 E12.99747
G1 X75.296 Y39.053 E13.02013
G1 X75.385 Y39.637 E13.04273
G1 X75.4 Y40 E13.05664
G1 X75.4 Y80 E14.58744
G1 X75.36 Y80.59 E14.61007
G1 X75.241 Y81.169 E14.63269
G1 X75.045 Y81.727 E14.65532
G1 X74.775 Y82.253 E14.67795
G1 X74.437 Y82.738 E14.70057
G1 X74.037 Y83.173 E14.72319
G1 X73.581 Y83.55 E14.74583
G1 X73.079 Y83.863 E14.76847
G1 X72.54 Y84.104 E14.79107
G1 X71.972 Y84.271 E14.81372
G1 X71.388 Y84.36 E14.83633
G1 X71.025 Y84.375 E14.85024
G1 X48.975 Y84.375 E15.69409
G1 X48.385 Y84.335 E15.71672
G1 X47.806 Y84.216 E15.73934
G1 X47.248 Y84.02 E15.76197
G1 X46.722 Y83.75 E15.7846
G1 X46.237 Y83.412 E15.80723
G1 X45.802 Y83.012 E15.82984
G1 X45.425 Y82.556 E15.85248
G1 X45.112 Y82.054 E15.87512
G1 X44.871 Y81.515 E15.89772
G1 X44.704 Y80.947 E15.92038
G1 X44.615 Y80.363 E15.94298
G1 X44.6 Y80 E15.95689
G1 X44.6 Y40 E17.48769
G1 X44.64 Y39.41 E17.51032
G1 X44.759 Y38.831 E17.53294
G1 X44.955 Y38.273 E17.55557
G1 X45.178 Y37.838 E17.57428
G0 F1620 X45.225 Y37.747
G0 X45.563 Y37.262
G0 F4320 X45.573 Y37.848
G1 F1800 X45.91 Y37.392 E17.59598
G1 X46.307 Y36.987 E17.61768
G1 X46.757 Y36.641 E17.63941
G1 X47.251 Y36.363 E17.6611
G1 X47.779 Y36.157 E17.68279
G1 X48.331 Y36.027 E17.70449
G1 X48.975 Y35.975 E17.72922
G1 X71.025 Y35.975 E18.57307
G1 X71.591 Y36.015 E18.59479
G1 X72.145 Y36.134 E18.61647
G1 X72.677 Y36.33 E18.63817
G1 X73.177 Y36.598 E18.65988
G1 X73.633 Y36.935 E18.68158
G1 X74.038 Y37.332 E18.70328
G1 X74.384 Y37.782 E18.72501
G1 X74.662 Y38.276 E18.7467
G1 X74.868 Y38.804 E18.76839
G1 X74.998 Y39.356 E18.79009
G1 X75.05 Y40 E18.81482
G1 X75.05 Y80 E20.34562
G1 X75.01 Y80.566 E20.36733
G1 X74.891 Y81.12 E20.38902
G1 X74.695 Y81.652 E20.41071
G1 X74.427 Y82.152 E20.43242
G1 X74.09 Y82.608 E20.45412
G1 X73.693 Y83.013 E20.47583
G1 X73.243 Y83.359 E20.49755
G1 X72.749 Y83.637 E20.51924
G1 X72.221 Y83.843 E20.54093
G1 X71.669 Y83.973 E20.56264
G1 X71.025 Y84.025 E20.58736
G1 X48.975 Y84.025 E21.43122
G1 X48.409 Y83.985 E21.45293
G1 X47.855 Y83.866 E21.47462
G1 X47.323 Y83.67 E21.49631
G1 X46.823 Y83.402 E21.51802
G1 X46.367 Y83.065 E21.53972
G1 X45.962 Y82.668 E21.56143
G1 X45.616 Y82.218 E21.58315
G1 X45.338 Y81.724 E21.60484
G1 X45.132 Y81.196 E21.62653
G1 X45.002 Y80.644 E21.64824
G1 X44.95 Y80 E21.67296
G1 X44.95 Y40 E23.20376
G1 X44.99 Y39.434 E23.22548
G1 X45.109 Y38.88 E23.24716
G1 X45.262 Y38.467 E23.26402
G0 F1620 X45.305 Y38.348
G0 X45.573 Y37.848
G0 F4320 X45.922 Y37.954
G1 F1800 X46.256 Y37.528 E23.28473
G1 X46.649 Y37.155 E23.30547
G1 X47.093 Y36.844 E23.32621
G1 X47.577 Y36.601 E23.34694
G1 X48.092 Y36.433 E23.36767
G1 X48.626 Y36.342 E23.3884
G1 X48.975 Y36.325 E23.40177
G1 X71.025 Y36.325 E24.24563
G1 X71.565 Y36.365 E24.26635
G1 X72.094 Y36.484 E24.2871
G1 X72.599 Y36.679 E24.30782
G1 X73.071 Y36.947 E24.32859
G1 X73.497 Y37.281 E24.3493
G1 X73.87 Y37.674 E24.37004
G1 X74.181 Y38.118 E24.39079
G1 X74.424 Y38.602 E24.41151
G1 X74.592 Y39.117 E24.43224
G1 X74.683 Y39.651 E24.45297
G1 X74.7 Y40 E24.46635
G1 X74.7 Y80 E25.99714
G1 X74.66 Y80.54 E26.01787
G1 X74.541 Y81.069 E26.03862
G1 X74.346 Y81.574 E26.05933
G1 X74.078 Y82.046 E26.08011
G1 X73.744 Y82.472 E26.10082
G1 X73.351 Y82.845 E26.12156
G1 X72.907 Y83.156 E26.1423
G1 X72.423 Y83.399 E26.16303
G1 X71.908 Y83.567 E26.18376
G1 X71.374 Y83.658 E26.20449
G1 X71.025 Y83.675 E26.21786
G1 X48.975 Y83.675 E27.06172
G1 X48.435 Y83.635 E27.08244
G1 X47.906 Y83.516 E27.10319
G1 X47.401 Y83.321 E27.12391
G1 X46.929 Y83.053 E27.14468
G1 X46.503 Y82.719 E27.1654
G1 X46.13 Y82.326 E27.18613
G1 X45.819 Y81.882 E27.20688
G1 X45.576 Y81.398 E27.2276
G1 X45.408 Y80.883 E27.24833
G1 X45.317 Y80.349 E27.26906
G1 X45.3 Y80 E27.28244
G1 X45.3 Y40 E28.81323
G1 X45.34 Y39.46 E28.83396
G1 X45.459 Y38.931 E28.85471
G1 X45.6 Y38.567 E28.86965
G0 F1620 X45.654 Y38.426
G0 X45.922 Y37.954
G0 F4320 X46.27 Y38.066
G1 F1800 X46.601 Y37.672 E28.88934
G1 X46.99 Y37.333 E28.90909
G1 X47.426 Y37.058 E28.92881
G1 X47.899 Y36.854 E28.94853
G1 X48.398 Y36.725 E28.96825
G1 X48.975 Y36.675 E28.99042
G1 X71.025 Y36.675 E29.83427
G1 X71.539 Y36.715 E29.854
G1 X72.04 Y36.834 E29.87371
G1 X72.517 Y37.029 E29.89343
G1 X72.959 Y37.295 E29.91317
G1 X73.353 Y37.626 E29.93286
G1 X73.692 Y38.015 E29.95261
G1 X73.967 Y38.451 E29.97234
G1 X74.171 Y38.924 E29.99205
G1 X74.3 Y39.423 E30.01177
G1 X74.35 Y40 E30.03394
G1 X74.35 Y80 E31.56474
G1 X74.31 Y80.514 E31.58447
G1 X74.191 Y81.015 E31.60417
G1 X73.996 Y81.492 E31.62389
G1 X73.73 Y81.934 E31.64364
G1 X73.399 Y82.328 E31.66333
G1 X73.01 Y82.667 E31.68308
G1 X72.574 Y82.942 E31.7028
G1 X72.101 Y83.146 E31.72252
G1 X71.602 Y83.275 E31.74224
G1 X71.025 Y83.325 E31.76441
G1 X48.975 Y83.325 E32.60826
G1 X48.461 Y83.285 E32.62799
G1 X47.96 Y83.166 E32.6477
G1 X47.483 Y82.971 E32.66742
G1 X47.041 Y82.705 E32.68716
G1 X46.647 Y82.374 E32.70685
G1 X46.308 Y81.985 E32.7266
G1 X46.033 Y81.549 E32.74633
G1 X45.829 Y81.076 E32.76604
G1 X45.7 Y80.577 E32.78576
G1 X45.65 Y80 E32.80793
G1 X45.65 Y40 E34.33873
G1 X45.69 Y39.486 E34.35846
G1 X45.809 Y38.985 E34.37816
G1 X45.937 Y38.673 E34.39107
G0 F1620 X46.004 Y38.508
G0 X46.27 Y38.066
G0 F4320 X46.618 Y38.185
G1 F1800 X46.946 Y37.825 E34.40971
G1 X47.328 Y37.522 E34.42837
G1 X47.755 Y37.287 E34.44702
G1 X48.214 Y37.124 E34.46566
G1 X48.694 Y37.038 E34.48432
G1 X48.975 Y37.025 E34.49509
G1 X71.025 Y37.025 E35.33894
G1 X71.511 Y37.065 E35.3576
G1 X71.984 Y37.184 E35.37627
G1 X72.431 Y37.378 E35.39492
G1 X72.84 Y37.643 E35.41357
G1 X73.2 Y37.971 E35.4322
G1 X73.503 Y38.353 E35.45086
G1 X73.738 Y38.78 E35.46952
G1 X73.901 Y39.239 E35.48816
G1 X73.987 Y39.719 E35.50682
G1 X74 Y40 E35.51759
G1 X74 Y80 E37.04838
G1 X73.96 Y80.486 E37.06705
G1 X73.841 Y80.959 E37.08571
G1 X73.647 Y81.406 E37.10436
G1 X73.382 Y81.815 E37.12301
G1 X73.054 Y82.175 E37.14165
G1 X72.672 Y82.478 E37.16031
G1 X72.245 Y82.713 E37.17896
G1 X71.786 Y82.876 E37.1976
G1 X71.306 Y82.962 E37.21626
G1 X71.025 Y82.975 E37.22703
G1 X48.975 Y82.975 E38.07088
G1 X48.489 Y82.935 E38.08954
G1 X48.016 Y82.816 E38.10821
G1 X47.569 Y82.622 E38.12686
G1 X47.16 Y82.357 E38.14551
G1 X46.8 Y82.029 E38.16415
G1 X46.497 Y81.647 E38.1828
G1 X46.262 Y81.22 E38.20146
G1 X46.099 Y80.761 E38.2201
G1 X46.013 Y80.281 E38.23876
G1 X46 Y80 E38.24953
G1 X46 Y40 E39.78032
G1 X46.04 Y39.514 E39.79899
G1 X46.159 Y39.041 E39.81765
G1 X46.271 Y38.783 E39.82841
G0 F1620 X46.353 Y38.594
G0 X46.618 Y38.185
G0 F4320 X46.965 Y38.312
G1 F1800 X47.289 Y37.988 E39.84595
G1 X47.664 Y37.726 E39.86346
G1 X48.079 Y37.533 E39.88097
G1 X48.521 Y37.415 E39.89848
G1 X48.975 Y37.375 E39.91592
G1 X71.025 Y37.375 E40.75977
G1 X71.481 Y37.415 E40.77729
G1 X71.923 Y37.533 E40.7948
G1 X72.338 Y37.727 E40.81233
G1 X72.713 Y37.99 E40.82986
G1 X73.037 Y38.314 E40.8474
G1 X73.299 Y38.689 E40.8649
G1 X73.492 Y39.104 E40.88242
G1 X73.61 Y39.546 E40.89993
G1 X73.65 Y40 E40.91737
G1 X73.65 Y80 E42.44817
G1 X73.61 Y80.456 E42.46568
G1 X73.492 Y80.898 E42.48319
G1 X73.298 Y81.313 E42.50072
G1 X73.035 Y81.688 E42.51825
G1 X72.711 Y82.012 E42.53579
G1 X72.336 Y82.274 E42.5533
G1 X71.921 Y82.467 E42.57081
G1 X71.479 Y82.585 E42.58832
G1 X71.025 Y82.625 E42.60576
G1 X48.975 Y82.625 E43.44961
G1 X48.519 Y82.585 E43.46713
G1 X48.077 Y82.467 E43.48464
G1 X47.662 Y82.273 E43.50217
G1 X47.287 Y82.01 E43.5197
G1 X46.963 Y81.686 E43.53723
G1 X46.701 Y81.311 E43.55474
G1 X46.508 Y80.896 E43.57226
G1 X46.39 Y80.454 E43.58976
G1 X46.35 Y80 E43.60721
G1 X46.35 Y40 E45.138
G1 X46.39 Y39.544 E45.15552
G1 X46.508 Y39.102 E45.17303
G1 X46.603 Y38.9 E45.18157
G0 F1620 X46.702 Y38.687
G0 X46.965 Y38.312
G0 F4320 X47.051 Y38.786
G1 F1800 X47.311 Y38.449 E45.19786
G1 X47.629 Y38.166 E45.21415
G1 X47.995 Y37.947 E45.23048
G1 X48.395 Y37.8 E45.24679
G1 X48.975 Y37.725 E45.26917
G1 X71.025 Y37.725 E46.11302
G1 X71.449 Y37.765 E46.12932
G1 X71.859 Y37.883 E46.14564
G1 X72.239 Y38.076 E46.16196
G1 X72.576 Y38.336 E46.17824
G1 X72.859 Y38.654 E46.19454
G1 X73.078 Y39.02 E46.21086
G1 X73.225 Y39.42 E46.22717
G1 X73.3 Y40 E46.24955
G1 X73.3 Y80 E47.78035
G1 X73.26 Y80.424 E47.79665
G1 X73.142 Y80.834 E47.81297
G1 X72.949 Y81.214 E47.82928
G1 X72.689 Y81.551 E47.84557
G1 X72.371 Y81.834 E47.86186
G1 X72.005 Y82.053 E47.87819
G1 X71.605 Y82.2 E47.8945
G1 X71.025 Y82.275 E47.91688
G1 X48.975 Y82.275 E48.76073
G1 X48.551 Y82.235 E48.77703
G1 X48.141 Y82.117 E48.79336
G1 X47.761 Y81.924 E48.80967
G1 X47.424 Y81.664 E48.82596
G1 X47.141 Y81.346 E48.84225
G1 X46.922 Y80.98 E48.85857
G1 X46.775 Y80.58 E48.87488
G1 X46.7 Y80 E48.89726
G1 X46.7 Y40 E50.42806
G1 X46.74 Y39.576 E50.44436
G1 X46.784 Y39.423 E50.45045
G0 F1620 X46.858 Y39.166
G0 X47.051 Y38.786
G0 F4320 X47.399 Y38.894
G1 F1800 X47.656 Y38.598 E50.46545
G1 X47.967 Y38.36 E50.48044
G1 X48.32 Y38.19 E50.49543
G1 X48.7 Y38.095 E50.51042
G1 X48.975 Y38.075 E50.52097
G1 X71.025 Y38.075 E51.36483
G1 X71.415 Y38.115 E51.37983
G1 X71.789 Y38.233 E51.39484
G1 X72.131 Y38.424 E51.40983
G1 X72.427 Y38.681 E51.42483
G1 X72.665 Y38.992 E51.43982
G1 X72.835 Y39.345 E51.45481
G1 X72.93 Y39.725 E51.4698
G1 X72.95 Y40 E51.48035
G1 X72.95 Y80 E53.01115
G1 X72.91 Y80.39 E53.02616
G1 X72.792 Y80.764 E53.04116
G1 X72.601 Y81.106 E53.05616
G1 X72.344 Y81.402 E53.07116
G1 X72.033 Y81.64 E53.08614
G1 X71.68 Y81.81 E53.10114
G1 X71.3 Y81.905 E53.11613
G1 X71.025 Y81.925 E53.12668
G1 X48.975 Y81.925 E53.97053
G1 X48.585 Y81.885 E53.98554
G1 X48.211 Y81.767 E54.00055
G1 X47.869 Y81.576 E54.01554
G1 X47.573 Y81.319 E54.03054
G1 X47.335 Y81.008 E54.04553
G1 X47.165 Y80.655 E54.06052
G1 X47.07 Y80.275 E54.07551
G1 X47.05 Y80 E54.08606
G1 X47.05 Y40 E55.61686
G1 X47.09 Y39.61 E55.63186
G1 X47.117 Y39.525 E55.63528
G0 F1620 X47.208 Y39.236
G0 X47.399 Y38.894
G0 F4320 X47.747 Y39.014
G1 F1800 X47.998 Y38.764 E55.64883
G1 X48.299 Y38.577 E55.6624
G1 X48.635 Y38.462 E55.67599
G1 X48.975 Y38.425 E55.68908
G1 X71.025 Y38.425 E56.53293
G1 X71.377 Y38.465 E56.54649
G1 X71.711 Y38.582 E56.56003
G1 X72.011 Y38.772 E56.57362
G1 X72.261 Y39.023 E56.58718
G1 X72.448 Y39.324 E56.60074
G1 X72.563 Y39.66 E56.61433
G1 X72.6 Y40 E56.62742
G1 X72.6 Y80 E58.15821
G1 X72.56 Y80.352 E58.17177
G1 X72.443 Y80.686 E58.18532
G1 X72.253 Y80.986 E58.19891
G1 X72.002 Y81.236 E58.21246
G1 X71.701 Y81.423 E58.22602
G1 X71.365 Y81.538 E58.23962
G1 X71.025 Y81.575 E58.2527
G1 X48.975 Y81.575 E59.09656
G1 X48.623 Y81.535 E59.11011
G1 X48.289 Y81.418 E59.12366
G1 X47.989 Y81.228 E59.13725
G1 X47.739 Y80.977 E59.15081
G1 X47.552 Y80.676 E59.16437
G1 X47.437 Y80.34 E59.17796
G1 X47.4 Y80 E59.19105
G1 X47.4 Y40 E60.72184
G1 X47.44 Y39.648 E60.7354
G1 X47.445 Y39.634 E60.73597
G0 F1620 X47.557 Y39.314
G0 X47.747 Y39.014
G0 F4320 X47.907 Y39.4
G1 F1800 X48.093 Y39.15 E60.7479
G1 X48.337 Y38.954 E60.75987
G1 X48.622 Y38.827 E60.77181
G1 X48.975 Y38.775 E60.78547
G1 X71.025 Y38.775 E61.62932
G1 X71.335 Y38.815 E61.64128
G1 X71.625 Y38.932 E61.65325
G1 X71.875 Y39.118 E61.66518
G1 X72.071 Y39.362 E61.67715
G1 X72.198 Y39.647 E61.68909
G1 X72.25 Y40 E61.70275
G1 X72.25 Y80 E63.23355
G1 X72.21 Y80.31 E63.24551
G1 X72.093 Y80.6 E63.25748
G1 X71.907 Y80.85 E63.2694
G1 X71.663 Y81.046 E63.28138
G1 X71.378 Y81.173 E63.29332
G1 X71.025 Y81.225 E63.30698
G1 X48.975 Y81.225 E64.15083
G1 X48.665 Y81.185 E64.16279
G1 X48.375 Y81.068 E64.17476
G1 X48.125 Y80.882 E64.18668
G1 X47.929 Y80.638 E64.19866
G1 X47.802 Y80.353 E64.2106
G1 X47.75 Y80 E64.22426
G1 X47.75 Y40.07 E65.75237
G0 F1620 X47.75 Y40
G0 X47.79 Y39.69
G0 X47.907 Y39.4
G0 F4320 X48.255 Y39.502
G1 F1800 X48.437 Y39.31 E65.7625
G1 X48.667 Y39.181 E65.77259
G1 X48.975 Y39.125 E65.78457
G1 X71.025 Y39.125 E66.62842
G1 X71.286 Y39.165 E66.63853
G1 X71.523 Y39.28 E66.64861
