;FLAVOR:Marlin
;TIME:1983
;Filament used: 1.16379m
;Layer height: 0.13125
;MINX:34.925
;MINY:44.925
;MINZ:0.263
;MAXX:85.073
;MAXY:75.075
;MAXZ:15.983
;Generated with Cura_SteamEngine 4.4.1
M140 S65
M105
M190 S65
M104 S205
M105
M109 S205
M82 ;absolute extrusion mode
G21;(metric values)
G90;(absolute positioning)
M82;(set extruder to absolute mode)
M107;(start with the fan off)
G28;(Home the printer)
G92 E0;(Reset the extruder to 0)
G0 Z5 E5 F500;(Move up and prime the nozzle)
G0 X-1 Z0;(Move outside the printable area)
G1 Y60 E8 F500;(Draw a priming/wiping line to the rear)
G1 X-1;(Move a little closer to the print area)
G1 Y10 E16 F500;(draw more priming/wiping)
G1 E15 F250;(Small retract)
G92 E0;(Zero the extruder)
G92 E0
G92 E0
G1 F2400 E-2.5
;LAYER_COUNT:121
;LAYER:0
M107
G0 F4320 X36.763 Y46.092 Z0.263
;TYPE:SKIRT
G1 F2400 E0
G1 F1800 X37.278 Y45.717 E0.02438
G1 X37.835 Y45.41 E0.04872
G1 X38.427 Y45.175 E0.0731
G1 X39.044 Y45.016 E0.09748
G1 X39.676 Y44.935 E0.12186
G1 X40 Y44.925 E0.13427
G1 X45 Y44.925 E0.32562
G1 X45.636 Y44.965 E0.35001
G1 X46.261 Y45.084 E0.37436
G1 X46.867 Y45.281 E0.39874
G1 X47.443 Y45.552 E0.4231
G1 X47.981 Y45.893 E0.44748
G1 X48.472 Y46.299 E0.47186
G1 X48.908 Y46.763 E0.49623
G1 X49.283 Y47.278 E0.52061
G1 X49.59 Y47.835 E0.54495
G1 X49.825 Y48.427 E0.56932
G1 X49.984 Y49.044 E0.59371
G1 X50.065 Y49.676 E0.61809
G1 X50.075 Y50 E0.6305
G1 X50.075 Y59.925 E1.01033
G1 X74.186 Y59.925 E1.93305
G1 X74.342 Y59.927 E1.93902
G1 X75.218 Y59.954 E1.97256
G1 X75.806 Y60.007 E1.99516
G1 X76.346 Y60.087 E2.01605
G1 X76.842 Y60.186 E2.03541
G1 X77.366 Y60.318 E2.05609
G1 X77.851 Y60.466 E2.07549
G1 X78.363 Y60.651 E2.09633
G1 X78.813 Y60.839 E2.11499
G1 X79.302 Y61.071 E2.1357
G1 X79.746 Y61.309 E2.15498
G1 X80.209 Y61.588 E2.17567
G1 X80.623 Y61.866 E2.19475
G1 X81.059 Y62.191 E2.21557
G1 X81.447 Y62.511 E2.23481
G1 X81.847 Y62.876 E2.25554
G1 X82.197 Y63.228 E2.27453
G1 X82.56 Y63.631 E2.29529
G1 X82.879 Y64.024 E2.31466
G1 X83.2 Y64.461 E2.33541
G1 X83.475 Y64.876 E2.35446
G1 X83.752 Y65.343 E2.37524
G1 X83.986 Y65.787 E2.39445
G1 X84.215 Y66.278 E2.41519
G1 X84.406 Y66.746 E2.43453
G1 X84.586 Y67.26 E2.45537
G1 X84.727 Y67.735 E2.47433
G1 X84.855 Y68.26 E2.49501
G1 X84.95 Y68.758 E2.51442
G1 X85.024 Y69.286 E2.53482
G1 X85.073 Y69.921 E2.55919
G1 X85.041 Y70.557 E2.58356
G1 X84.931 Y71.184 E2.60793
G1 X84.742 Y71.792 E2.63229
G1 X84.479 Y72.372 E2.65666
G1 X84.145 Y72.915 E2.68106
G1 X83.747 Y73.411 E2.7054
G1 X83.289 Y73.854 E2.72978
G1 X82.779 Y74.235 E2.75415
G1 X82.225 Y74.55 E2.77854
G1 X81.636 Y74.793 E2.80292
G1 X81.022 Y74.961 E2.82728
G1 X80.391 Y75.05 E2.85167
G1 X79.999 Y75.065 E2.86668
G1 X40.001 Y75.075 E4.3974
G1 X39.366 Y75.035 E4.42175
G1 X38.74 Y74.916 E4.44614
G1 X38.134 Y74.72 E4.47051
G1 X37.558 Y74.449 E4.49487
G1 X37.02 Y74.108 E4.51925
G1 X36.529 Y73.702 E4.54363
G1 X36.092 Y73.238 E4.56803
G1 X35.718 Y72.723 E4.59238
G1 X35.41 Y72.166 E4.61674
G1 X35.175 Y71.574 E4.64112
G1 X35.016 Y70.957 E4.6655
G1 X34.935 Y70.325 E4.68989
G1 X34.925 Y70 E4.70233
G1 X34.925 Y50 E5.46773
G1 X34.965 Y49.364 E5.49212
G1 X35.084 Y48.739 E5.51647
G1 X35.281 Y48.133 E5.54085
G1 X35.552 Y47.557 E5.56521
G1 X35.893 Y47.019 E5.58959
G1 X36.263 Y46.572 E5.6118
G0 F1620 X36.299 Y46.528
G0 X36.763 Y46.092
G0 F4320 X37.104 Y46.267
G1 F1800 X37.613 Y45.922 E5.63533
G1 X38.162 Y45.647 E5.65883
G1 X38.743 Y45.445 E5.68237
G1 X39.344 Y45.321 E5.70585
G1 X40 Y45.275 E5.73102
G1 X45 Y45.275 E5.92237
G1 X45.613 Y45.315 E5.94588
G1 X46.216 Y45.434 E5.9694
G1 X46.798 Y45.631 E5.99291
G1 X47.35 Y45.901 E6.01643
G1 X47.862 Y46.241 E6.03995
G1 X48.326 Y46.644 E6.06347
G1 X48.733 Y47.104 E6.08698
G1 X49.078 Y47.613 E6.11051
G1 X49.353 Y48.162 E6.13401
G1 X49.555 Y48.743 E6.15755
G1 X49.679 Y49.344 E6.18103
G1 X49.725 Y50 E6.2062
G1 X49.725 Y60.125 E6.59368
G1 X49.732 Y60.248 E6.5984
G1 X49.733 Y60.257 E6.59874
G1 X49.736 Y60.261 E6.59894
G1 X49.737 Y60.262 E6.59899
G1 X49.743 Y60.266 E6.59927
G1 X49.744 Y60.267 E6.59932
G1 X49.743 Y60.267 E6.59936
G1 X49.751 Y60.268 E6.59967
G1 X49.875 Y60.275 E6.60442
G1 X74.186 Y60.275 E7.5348
G1 X74.332 Y60.277 E7.54039
G1 X75.208 Y60.304 E7.57393
G1 X75.754 Y60.353 E7.59491
G1 X76.294 Y60.433 E7.6158
G1 X76.756 Y60.525 E7.63383
G1 X77.28 Y60.657 E7.65451
G1 X77.732 Y60.795 E7.67259
G1 X78.244 Y60.98 E7.69343
G1 X78.663 Y61.155 E7.71081
G1 X79.152 Y61.387 E7.73152
G1 X79.566 Y61.609 E7.7495
G1 X80.029 Y61.888 E7.77018
G1 X80.414 Y62.147 E7.78794
G1 X80.85 Y62.472 E7.80875
G1 X81.211 Y62.77 E7.82667
G1 X81.611 Y63.135 E7.84739
G1 X81.937 Y63.463 E7.86509
G1 X82.3 Y63.866 E7.88585
G1 X82.597 Y64.231 E7.90385
G1 X82.918 Y64.668 E7.92461
G1 X83.174 Y65.055 E7.94236
G1 X83.451 Y65.522 E7.96314
G1 X83.669 Y65.935 E7.98101
G1 X83.898 Y66.426 E8.00175
G1 X84.075 Y66.861 E8.01972
G1 X84.255 Y67.375 E8.04056
G1 X84.387 Y67.818 E8.05825
G1 X84.515 Y68.343 E8.07893
G1 X84.603 Y68.806 E8.09697
G1 X84.677 Y69.334 E8.11737
G1 X84.723 Y69.947 E8.1409
G1 X84.688 Y70.561 E8.16444
G1 X84.575 Y71.164 E8.18791
G1 X84.384 Y71.748 E8.21143
G1 X84.118 Y72.303 E8.23498
G1 X83.783 Y72.818 E8.25849
G1 X83.384 Y73.285 E8.282
G1 X82.928 Y73.697 E8.30552
G1 X82.422 Y74.046 E8.32904
G1 X81.875 Y74.326 E8.35256
G1 X81.297 Y74.533 E8.37606
G1 X80.696 Y74.663 E8.39959
G1 X79.999 Y74.715 E8.42634
G1 X40.001 Y74.725 E9.95706
G1 X39.388 Y74.685 E9.98057
G1 X38.785 Y74.566 E10.00409
G1 X38.203 Y74.37 E10.02759
G1 X37.651 Y74.1 E10.05111
G1 X37.139 Y73.76 E10.07463
G1 X36.675 Y73.357 E10.09815
G1 X36.267 Y72.897 E10.12168
G1 X35.923 Y72.388 E10.14519
G1 X35.648 Y71.839 E10.16869
G1 X35.446 Y71.259 E10.19219
G1 X35.321 Y70.657 E10.21572
G1 X35.275 Y70 E10.24093
G1 X35.275 Y50 E11.00633
G1 X35.315 Y49.387 E11.02984
G1 X35.434 Y48.784 E11.05336
G1 X35.631 Y48.202 E11.07687
G1 X35.901 Y47.65 E11.10039
G1 X36.241 Y47.138 E11.12391
G1 X36.592 Y46.734 E11.14439
G0 F1620 X36.644 Y46.674
G0 X37.104 Y46.267
G0 F4320 X36.988 Y46.827
G1 F1800 X37.444 Y46.45 E11.16703
G1 X37.946 Y46.137 E11.18967
G1 X38.485 Y45.896 E11.21227
G1 X39.053 Y45.729 E11.23493
G1 X39.637 Y45.64 E11.25754
G1 X40 Y45.625 E11.27144
G1 X45 Y45.625 E11.46279
G1 X45.59 Y45.665 E11.48542
G1 X46.169 Y45.784 E11.50804
G1 X46.727 Y45.98 E11.53068
G1 X47.253 Y46.25 E11.5533
G1 X47.738 Y46.588 E11.57593
G1 X48.173 Y46.988 E11.59854
G1 X48.55 Y47.444 E11.62118
G1 X48.863 Y47.946 E11.64382
G1 X49.104 Y48.485 E11.66642
G1 X49.271 Y49.053 E11.68908
G1 X49.36 Y49.637 E11.71168
G1 X49.375 Y50 E11.72559
G1 X49.375 Y60.128 E12.11319
G1 X49.384 Y60.289 E12.11936
G1 X49.392 Y60.333 E12.12107
G1 X49.405 Y60.378 E12.12286
G1 X49.416 Y60.406 E12.12401
G1 X49.438 Y60.446 E12.12576
G1 X49.465 Y60.485 E12.12758
G1 X49.484 Y60.506 E12.12866
G1 X49.521 Y60.538 E12.13053
G1 X49.558 Y60.565 E12.13228
G1 X49.589 Y60.582 E12.13364
G1 X49.624 Y60.596 E12.13508
G1 X49.666 Y60.608 E12.13675
G1 X49.71 Y60.616 E12.13846
G1 X49.873 Y60.625 E12.14471
G1 X74.186 Y60.625 E13.07517
G1 X74.321 Y60.627 E13.08033
G1 X75.197 Y60.654 E13.11388
G1 X75.703 Y60.699 E13.13332
G1 X76.243 Y60.779 E13.15421
G1 X76.671 Y60.865 E13.17091
G1 X77.195 Y60.997 E13.19159
G1 X77.613 Y61.124 E13.20831
G1 X78.125 Y61.309 E13.22915
G1 X78.513 Y61.471 E13.24524
G1 X79.002 Y61.703 E13.26595
G1 X79.385 Y61.909 E13.28259
G1 X79.848 Y62.188 E13.30328
G1 X80.205 Y62.427 E13.31972
G1 X80.641 Y62.752 E13.34053
G1 X80.975 Y63.028 E13.35712
G1 X81.375 Y63.393 E13.37784
G1 X81.677 Y63.697 E13.39424
G1 X82.04 Y64.1 E13.415
G1 X82.315 Y64.438 E13.43167
G1 X82.636 Y64.875 E13.45242
G1 X82.873 Y65.233 E13.46885
G1 X83.15 Y65.7 E13.48963
G1 X83.352 Y66.083 E13.5062
G1 X83.581 Y66.574 E13.52694
G1 X83.745 Y66.977 E13.54359
G1 X83.925 Y67.491 E13.56443
G1 X84.046 Y67.901 E13.58079
G1 X84.174 Y68.426 E13.60147
G1 X84.257 Y68.855 E13.61819
G1 X84.331 Y69.383 E13.6386
G1 X84.373 Y69.973 E13.66123
G1 X84.335 Y70.563 E13.68386
G1 X84.219 Y71.142 E13.70646
G1 X84.025 Y71.701 E13.7291
G1 X83.757 Y72.228 E13.75173
G1 X83.421 Y72.715 E13.77437
G1 X83.022 Y73.151 E13.79699
G1 X82.569 Y73.53 E13.81959
G1 X82.068 Y73.844 E13.84222
G1 X81.529 Y74.088 E13.86486
G1 X80.963 Y74.257 E13.88747
G1 X80.378 Y74.348 E13.91013
G1 X79.999 Y74.365 E13.92465
G1 X40.001 Y74.375 E15.45537
G1 X39.411 Y74.335 E15.478
G1 X38.832 Y74.216 E15.50062
G1 X38.274 Y74.02 E15.52325
G1 X37.748 Y73.751 E15.54586
G1 X37.263 Y73.413 E15.56849
G1 X36.827 Y73.013 E15.59113
G1 X36.45 Y72.557 E15.61377
G1 X36.138 Y72.055 E15.63639
G1 X35.896 Y71.516 E15.659
G1 X35.729 Y70.949 E15.68162
G1 X35.64 Y70.364 E15.70427
G1 X35.625 Y70 E15.71821
G1 X35.625 Y50 E16.48361
G1 X35.665 Y49.41 E16.50624
G1 X35.784 Y48.831 E16.52886
G1 X35.98 Y48.273 E16.5515
G1 X36.25 Y47.747 E16.57412
G1 X36.529 Y47.347 E16.59279
G0 F1620 X36.588 Y47.262
G0 X36.988 Y46.827
G0 F4320 X37.332 Y46.987
G1 F1800 X37.782 Y46.641 E16.61451
G1 X38.276 Y46.363 E16.63621
G1 X38.804 Y46.157 E16.6579
G1 X39.356 Y46.027 E16.6796
G1 X40 Y45.975 E16.70432
G1 X45 Y45.975 E16.89567
G1 X45.566 Y46.015 E16.91739
G1 X46.12 Y46.134 E16.93907
G1 X46.652 Y46.33 E16.96077
G1 X47.152 Y46.598 E16.98248
G1 X47.608 Y46.935 E17.00418
G1 X48.013 Y47.332 E17.02589
G1 X48.359 Y47.782 E17.04761
G1 X48.637 Y48.276 E17.0693
G1 X48.843 Y48.804 E17.09099
G1 X48.973 Y49.356 E17.11269
G1 X49.025 Y50 E17.13742
G1 X49.025 Y60.13 E17.5251
G1 X49.037 Y60.339 E17.53311
G1 X49.049 Y60.41 E17.53586
G1 X49.071 Y60.485 E17.53885
G1 X49.103 Y60.564 E17.54212
G1 X49.14 Y60.63 E17.54501
G1 X49.19 Y60.701 E17.54833
G1 X49.241 Y60.758 E17.55126
G1 X49.299 Y60.811 E17.55427
G1 X49.371 Y60.861 E17.55762
G1 X49.434 Y60.896 E17.56038
G1 X49.509 Y60.927 E17.56349
G1 X49.591 Y60.951 E17.56676
G1 X49.667 Y60.963 E17.5697
G1 X49.871 Y60.975 E17.57752
G1 X74.186 Y60.975 E18.50806
G1 X74.31 Y60.977 E18.5128
G1 X75.186 Y61.004 E18.54634
G1 X75.652 Y61.045 E18.56425
G1 X76.192 Y61.125 E18.58514
G1 X76.585 Y61.204 E18.60048
G1 X77.109 Y61.336 E18.62116
G1 X77.494 Y61.454 E18.63657
G1 X78.006 Y61.639 E18.6574
G1 X78.363 Y61.788 E18.67221
G1 X78.852 Y62.02 E18.69292
G1 X79.204 Y62.209 E18.70821
G1 X79.667 Y62.488 E18.7289
G1 X79.996 Y62.708 E18.74404
G1 X80.432 Y63.033 E18.76485
G1 X80.739 Y63.287 E18.7801
G1 X81.139 Y63.652 E18.80083
G1 X81.417 Y63.931 E18.8159
G1 X81.78 Y64.334 E18.83666
G1 X82.033 Y64.645 E18.852
G1 X82.354 Y65.082 E18.87275
G1 X82.572 Y65.412 E18.88789
G1 X82.849 Y65.879 E18.90867
G1 X83.035 Y66.231 E18.9239
G1 X83.264 Y66.722 E18.94464
G1 X83.415 Y67.093 E18.95997
G1 X83.595 Y67.607 E18.98081
G1 X83.706 Y67.984 E18.99585
G1 X83.834 Y68.509 E19.01653
G1 X83.91 Y68.903 E19.03188
G1 X83.984 Y69.431 E19.05229
G1 X84.023 Y69.997 E19.074
G1 X83.982 Y70.563 E19.09572
G1 X83.862 Y71.117 E19.11741
G1 X83.665 Y71.649 E19.13912
G1 X83.396 Y72.148 E19.16082
G1 X83.059 Y72.604 E19.18252
G1 X82.661 Y73.008 E19.20422
G1 X82.21 Y73.352 E19.22593
G1 X81.716 Y73.63 E19.24762
G1 X81.187 Y73.835 E19.26933
G1 X80.635 Y73.964 E19.29103
G1 X79.999 Y74.015 E19.31544
G1 X40.001 Y74.025 E20.84617
G1 X39.435 Y73.985 E20.86788
G1 X38.881 Y73.866 E20.88957
G1 X38.349 Y73.671 E20.91125
G1 X37.849 Y73.402 E20.93298
G1 X37.392 Y73.066 E20.95469
G1 X36.987 Y72.669 E20.97639
G1 X36.642 Y72.219 E20.99809
G1 X36.363 Y71.725 E21.0198
G1 X36.157 Y71.197 E21.04149
G1 X36.027 Y70.645 E21.06319
G1 X35.975 Y70 E21.08796
G1 X35.975 Y50 E21.85336
G1 X36.015 Y49.434 E21.87507
G1 X36.134 Y48.88 E21.89676
G1 X36.33 Y48.348 E21.91846
G1 X36.598 Y47.848 E21.94017
G1 X36.86 Y47.494 E21.95702
G0 F1620 X36.935 Y47.392
G0 X37.332 Y46.987
G0 F4320 X37.674 Y47.155
G1 F1800 X38.118 Y46.844 E21.97777
G1 X38.602 Y46.601 E21.99849
G1 X39.117 Y46.433 E22.01922
G1 X39.651 Y46.342 E22.03995
G1 X40 Y46.325 E22.05333
G1 X45 Y46.325 E22.24468
G1 X45.54 Y46.365 E22.2654
G1 X46.069 Y46.484 E22.28615
G1 X46.574 Y46.679 E22.30687
G1 X47.046 Y46.947 E22.32764
G1 X47.472 Y47.281 E22.34835
G1 X47.845 Y47.674 E22.36909
G1 X48.156 Y48.118 E22.38984
G1 X48.399 Y48.602 E22.41056
G1 X48.567 Y49.117 E22.43129
G1 X48.658 Y49.651 E22.45202
G1 X48.675 Y50 E22.4654
G1 X48.675 Y60.149 E22.8538
G1 X48.688 Y60.372 E22.86235
G1 X48.707 Y60.486 E22.86677
G1 X48.741 Y60.605 E22.87151
G1 X48.786 Y60.715 E22.87605
G1 X48.843 Y60.817 E22.88053
G1 X48.914 Y60.918 E22.88525
G1 X48.993 Y61.006 E22.88978
G1 X49.078 Y61.081 E22.89411
G1 X49.186 Y61.158 E22.89919
G1 X49.287 Y61.214 E22.90361
G1 X49.397 Y61.26 E22.90817
G1 X49.506 Y61.291 E22.91251
G1 X49.634 Y61.313 E22.91748
G1 X49.851 Y61.325 E22.9258
G1 X74.186 Y61.325 E23.8571
G1 X74.299 Y61.327 E23.86142
G1 X75.175 Y61.354 E23.89496
G1 X75.601 Y61.392 E23.91133
G1 X76.141 Y61.472 E23.93222
G1 X76.5 Y61.543 E23.94623
G1 X77.024 Y61.675 E23.96691
G1 X77.375 Y61.783 E23.98096
G1 X77.887 Y61.968 E24.00179
G1 X78.213 Y62.104 E24.01531
G1 X78.702 Y62.336 E24.03603
G1 X79.024 Y62.508 E24.05
G1 X79.487 Y62.787 E24.07068
G1 X79.786 Y62.989 E24.08449
G1 X80.222 Y63.314 E24.1053
G1 X80.503 Y63.545 E24.11923
G1 X80.903 Y63.91 E24.13995
G1 X81.157 Y64.165 E24.15372
G1 X81.52 Y64.568 E24.17448
G1 X81.751 Y64.852 E24.18849
G1 X82.072 Y65.289 E24.20924
G1 X82.271 Y65.59 E24.22305
G1 X82.548 Y66.057 E24.24383
G1 X82.718 Y66.379 E24.25776
G1 X82.947 Y66.87 E24.2785
G1 X83.084 Y67.208 E24.29246
G1 X83.264 Y67.722 E24.3133
G1 X83.366 Y68.066 E24.32703
G1 X83.494 Y68.591 E24.34771
G1 X83.563 Y68.952 E24.36177
G1 X83.637 Y69.48 E24.38218
G1 X83.673 Y70.021 E24.40293
G1 X83.628 Y70.561 E24.42367
G1 X83.505 Y71.088 E24.44438
G1 X83.305 Y71.592 E24.46513
G1 X83.034 Y72.061 E24.48586
G1 X82.696 Y72.485 E24.50661
G1 X82.3 Y72.854 E24.52732
G1 X81.854 Y73.162 E24.54807
G1 X81.367 Y73.4 E24.56881
G1 X80.851 Y73.565 E24.58954
G1 X80.316 Y73.651 E24.61028
G1 X79.999 Y73.665 E24.62242
G1 X40.001 Y73.675 E26.15314
G1 X39.461 Y73.635 E26.17387
G1 X38.932 Y73.516 E26.19462
G1 X38.426 Y73.321 E26.21537
G1 X37.955 Y73.054 E26.23609
G1 X37.528 Y72.72 E26.25684
G1 X37.155 Y72.327 E26.27757
G1 X36.844 Y71.883 E26.29832
G1 X36.602 Y71.399 E26.31903
G1 X36.433 Y70.884 E26.33977
G1 X36.342 Y70.35 E26.3605
G1 X36.325 Y70 E26.37391
G1 X36.325 Y50 E27.13931
G1 X36.365 Y49.46 E27.16003
G1 X36.484 Y48.931 E27.18078
G1 X36.679 Y48.426 E27.2015
G1 X36.947 Y47.954 E27.22227
G1 X37.187 Y47.648 E27.23715
G0 F1620 X37.281 Y47.528
G0 X37.674 Y47.155
G0 F4320 X38.015 Y47.333
G1 F1800 X38.451 Y47.058 E27.25688
G1 X38.924 Y46.854 E27.2766
G1 X39.423 Y46.725 E27.29632
G1 X40 Y46.675 E27.31848
G1 X45 Y46.675 E27.50983
G1 X45.514 Y46.715 E27.52956
G1 X46.015 Y46.834 E27.54927
G1 X46.492 Y47.029 E27.56899
G1 X46.934 Y47.295 E27.58873
G1 X47.328 Y47.626 E27.60843
G1 X47.667 Y48.015 E27.62817
G1 X47.942 Y48.451 E27.6479
G1 X48.146 Y48.924 E27.66762
G1 X48.275 Y49.423 E27.68734
G1 X48.325 Y50 E27.7095
G1 X48.325 Y60.151 E28.09798
G1 X48.34 Y60.414 E28.10806
G1 X48.365 Y60.563 E28.11385
G1 X48.41 Y60.721 E28.12013
G1 X48.47 Y60.865 E28.1261
G1 X48.548 Y61.006 E28.13227
G1 X48.639 Y61.135 E28.13831
G1 X48.745 Y61.254 E28.14441
G1 X48.861 Y61.357 E28.15035
G1 X48.999 Y61.455 E28.15682
G1 X49.132 Y61.529 E28.16265
G1 X49.284 Y61.591 E28.16893
G1 X49.426 Y61.632 E28.17459
G1 X49.592 Y61.66 E28.18103
G1 X49.849 Y61.675 E28.19088
G1 X74.186 Y61.675 E29.12226
G1 X74.288 Y61.677 E29.12616
G1 X75.164 Y61.704 E29.1597
G1 X75.549 Y61.738 E29.17449
G1 X76.089 Y61.818 E29.19539
G1 X76.414 Y61.883 E29.20807
G1 X76.938 Y62.015 E29.22875
G1 X77.256 Y62.112 E29.24147
G1 X77.768 Y62.297 E29.26231
G1 X78.063 Y62.42 E29.27454
G1 X78.552 Y62.652 E29.29525
G1 X78.843 Y62.808 E29.30789
G1 X79.306 Y63.087 E29.32857
G1 X79.577 Y63.269 E29.34107
G1 X80.013 Y63.594 E29.36188
G1 X80.267 Y63.804 E29.37449
G1 X80.667 Y64.169 E29.39522
G1 X80.897 Y64.4 E29.40769
G1 X81.26 Y64.803 E29.42845
G1 X81.469 Y65.06 E29.44112
G1 X81.79 Y65.497 E29.46188
G1 X81.97 Y65.769 E29.47436
G1 X82.247 Y66.236 E29.49514
G1 X82.4 Y66.527 E29.50772
G1 X82.629 Y67.018 E29.52845
G1 X82.754 Y67.324 E29.5411
G1 X82.934 Y67.838 E29.56194
G1 X83.026 Y68.149 E29.57436
G1 X83.154 Y68.674 E29.59504
G1 X83.217 Y69.001 E29.60778
G1 X83.291 Y69.529 E29.62819
G1 X83.323 Y70.043 E29.64789
